dist/svgs/unicons/line/folder-slash.svg

<svg xmlns="http://www.w3.org/2000/svg" data-name="Layer 1" viewBox="0 0 24 24"><path d="M21.71 20.29l-1.6-1.6-16.4-16.4a1 1 0 00-1.42 1.42l1.4 1.39A3 3 0 003 7v11a3 3 0 003 3h12a3 3 0 001.29-.3l1 1a1 1 0 001.42 0 1 1 0 000-1.41zM6 19a1 1 0 01-1-1V7a1 1 0 01.12-.46L17.59 19zm4.62-13a1 1 0 01.89.67l.54 1.64A1 1 0 0013 9h5a1 1 0 011 1v4.34a1 1 0 102 0V10a3 3 0 00-3-3h-4.28l-.32-1a3 3 0 00-2.68-2 1 1 0 00-.1 2z"/></svg>

<svg xmlns="http://www.w3.org/2000/svg" data-name="Layer 1" viewBox="0 0 24 24"><path d="M21.71,20.29l-1.6-1.6h0L3.71,2.29A1,1,0,0,0,2.29,3.71L3.69,5.1A3,3,0,0,0,3,7V18a3,3,0,0,0,3,3H18a3,3,0,0,0,1.29-.3l1,1a1,1,0,0,0,1.42,0A1,1,0,0,0,21.71,20.29ZM6,19a1,1,0,0,1-1-1V7a1,1,0,0,1,.12-.46L17.59,19ZM10.62,6a1,1,0,0,1,.89.67l.54,1.64A1,1,0,0,0,13,9h5a1,1,0,0,1,1,1v4.34a1,1,0,1,0,2,0V10a3,3,0,0,0-3-3H13.72L13.4,6a3,3,0,0,0-2.68-2,1,1,0,0,0-.1,2Z"/></svg>
